X: 1
T: la Vie en Rose
C: Louiguy
M: C
L: 1/8
K: C
|"C"c3 B AGEc | "Cmaj7"B3 A GECB | "C6"A3 G EB,CB | "Dm7"[A4F4] "G7"[G4B,4] |
"Dm"d3 c BAFc | "G7"B3 A GFDB |"Dm7" A3 G "G7"F^C DB | "C"A4 "Dm7"G2-"G7"G2 |
"C"c3B AGEc|"Cmaj7"B3A GECB|"C6"A3G "C7"EB,CB|"Fmaj7"c4 d3c|
"Fm"dd2c dd2c | dd2c G4 |"Am" dd2c dd2c | dd2c "G7"e2 Hd2 |
"C"c3 B AGEc | "Cmaj7"B3 A GECB | "C6"A3G "G7"A2 B2|"C" [cE]6 z2 |]
